raw-svg/folder-plus.svg

<svg fill="none" height="24" viewBox="0 0 24 24" width="24" xmlns="http://www.w3.org/2000/svg"><path clip-rule="evenodd" d="m5.25 7.5c0-.68579.56421-1.25 1.25-1.25h2.15505l2.77555 3.23809c.1424.16624.3505.26191.5694.26191h5.5c.6858 0 1.25.5642 1.25 1.25v5.5c0 .6858-.5642 1.25-1.25 1.25h-11c-.68579 0-1.25-.5642-1.25-1.25zm1.25-2.75c-1.51421 0-2.75 1.23579-2.75 2.75v9c0 1.5142 1.23579 2.75 2.75 2.75h11c1.5142 0 2.75-1.2358 2.75-2.75v-5.5c0-1.51421-1.2358-2.75-2.75-2.75h-5.155l-2.77556-3.23809c-.14248-.16624-.3505-.26191-.56944-.26191zm5.5 6c.4142 0 .75.3358.75.75v1.25h1.25c.4142 0 .75.3358.75.75s-.3358.75-.75.75h-1.25v1.25c0 .4142-.3358.75-.75.75s-.75-.3358-.75-.75v-1.25h-1.25c-.41421 0-.75-.3358-.75-.75s.33579-.75.75-.75h1.25v-1.25c0-.4142.3358-.75.75-.75z" fill="#000" fill-rule="evenodd"/></svg>

<svg width="24" height="24" viewBox="0 0 24 24" fill="none" xmlns="http://www.w3.org/2000/svg">
<path fill-rule="evenodd" clip-rule="evenodd" d="M5.25 7.5C5.25 6.81421 5.81421 6.25 6.5 6.25H8.65505L11.4306 9.48809C11.573 9.65433 11.7811 9.75 12 9.75H17.5C18.1858 9.75 18.75 10.3142 18.75 11V16.5C18.75 17.1858 18.1858 17.75 17.5 17.75H6.5C5.81421 17.75 5.25 17.1858 5.25 16.5V7.5ZM6.5 4.75C4.98579 4.75 3.75 5.98579 3.75 7.5V16.5C3.75 18.0142 4.98579 19.25 6.5 19.25H17.5C19.0142 19.25 20.25 18.0142 20.25 16.5V11C20.25 9.48579 19.0142 8.25 17.5 8.25H12.345L9.56944 5.01191C9.42696 4.84567 9.21894 4.75 9 4.75H6.5ZM12 10.75C12.4142 10.75 12.75 11.0858 12.75 11.5V12.75H14C14.4142 12.75 14.75 13.0858 14.75 13.5C14.75 13.9142 14.4142 14.25 14 14.25H12.75V15.5C12.75 15.9142 12.4142 16.25 12 16.25C11.5858 16.25 11.25 15.9142 11.25 15.5V14.25H10C9.58579 14.25 9.25 13.9142 9.25 13.5C9.25 13.0858 9.58579 12.75 10 12.75H11.25V11.5C11.25 11.0858 11.5858 10.75 12 10.75Z" fill="black"/>
</svg>
